svgs/thin/cup-togo.svg

<svg xmlns="http://www.w3.org/2000/svg" viewBox="0 0 448 512"><!--! Font Awesome Pro 6.3.0 by @fontawesome - https://fontawesome.com License - https://fontawesome.com/license (Commercial License) Copyright 2023 Fonticons, Inc. --><path d="M432 64H416l-23.12-46.25C387.4 6.875 376.4 0 364.3 0h-280.5C71.63 0 60.63 6.875 55.13 17.75L32 64H16C7.125 64 0 71.13 0 80v32C0 120.9 7.125 128 16 128h416C440.9 128 448 120.9 448 112v-32C448 71.13 440.9 64 432 64zM432 112h-416v-32h25.89l27.51-55.03C72.2 19.44 77.7 16 83.75 16h280.5c6.051 0 11.55 3.438 14.31 8.906L406.1 80H432V112zM392.7 160c-4.438-.2813-8.281 2.906-8.625 7.297L377.1 240H70.02l-6.055-72.67c-.375-4.391-4.281-7.531-8.625-7.297C50.94 160.4 47.66 164.3 48.03 168.7l25.66 307.9C75.31 496.5 92.14 512 112 512h223.9c19.91 0 36.73-15.55 38.36-35.38l25.66-307.1C400.3 164.3 397.1 160.4 392.7 160zM358.4 475.3C357.4 486.9 347.5 496 335.9 496H112.1c-11.62 0-21.5-9.094-22.47-20.72L84.69 416h278.6L358.4 475.3zM364.6 400H83.35L71.36 256h305.3L364.6 400z"/></svg>

<svg xmlns="http://www.w3.org/2000/svg" viewBox="0 0 448 512"><!-- Font Awesome Pro 6.0.0-alpha2 by @fontawesome - https://fontawesome.com License - https://fontawesome.com/license (Commercial License) --><path d="M432 64H416L392.875 17.75C387.375 6.875 376.375 0 364.25 0H83.75C71.625 0 60.625 6.875 55.125 17.75L32 64H16C7.125 64 0 71.125 0 80V112C0 120.875 7.125 128 16 128H432C440.875 128 448 120.875 448 112V80C448 71.125 440.875 64 432 64ZM432 112H16V80H41.889L46.311 71.156L69.402 24.971C72.201 19.438 77.699 16 83.75 16H364.25C370.301 16 375.799 19.438 378.564 24.906L406.111 80H432V112ZM392.656 160.031C388.219 159.75 384.375 162.938 384.031 167.328L377.977 240H70.023L63.969 167.328C63.594 162.938 59.687 159.797 55.344 160.031C50.938 160.391 47.656 164.266 48.031 168.672L73.688 476.609C75.312 496.453 92.188 512 112.094 512H335.906C355.812 512 372.688 496.453 374.312 476.625L399.969 168.672C400.344 164.266 397.062 160.391 392.656 160.031ZM358.375 475.297C357.406 486.906 347.531 496 335.906 496H112.094C100.469 496 90.594 486.906 89.625 475.281L84.686 416H363.314L358.375 475.297ZM364.648 400H83.354L71.355 256H376.645L364.648 400Z"/></svg>
